X: 9469
T: Darby The Driver
R: jig
M: 6/8
K: Adorian
EAG ABd|ege dBA|GEF GAB|dBA GED|
EAG ABd|ege def|~g2d ege|dBG ~A2G:|
eag egd|eaa bag|efg d2g|efg ged|
eag egd|eaa bag|efg edB|BAG ~A2G:|

